src/pos-icons/stackpath.svg

<svg height="24" viewBox="0 0 24 24" width="24" xmlns="http://www.w3.org/2000/svg"><path d="m4.91 8c-.87 0-1.59.2-2.15.61-.57.39-.85.92-.85 1.58s.24 1.18.71 1.53c.48.35 1.2.69 2.18 1 .47.16.8.32.98.47s.27.36.27.64c0 .24-.09.43-.27.58s-.46.22-.84.22c-.49 0-.85-.09-1.09-.28-.25-.19-.35-.51-.35-.96h-1.78l-.01.03c-.01.83.29 1.47.95 1.91.64.45 1.4.67 2.28.67s1.56-.2 2.12-.58c.53-.39.8-.92.8-1.61 0-.67-.23-1.2-.67-1.58-.45-.39-1.11-.73-1.99-.97-.58-.21-.97-.38-1.2-.52-.19-.14-.29-.32-.29-.54 0-.24.1-.44.29-.6.22-.16.5-.24.87-.24s.66.1.87.29c.22.19.33.47.32.76h1.74l.02-.04c.02-.69-.25-1.26-.82-1.71-.53-.44-1.23-.66-2.09-.66m4.09.05v7.88h1.84v-2.7h1.12c.93 0 1.67-.23 2.22-.73.55-.45.82-1.08.82-1.86 0-.77-.27-1.39-.82-1.87s-1.29-.72-2.22-.72zm8.24 0-2.74 7.88h1.72l2.78-7.88m1.5 0-2.71 7.88h1.71l2.79-7.88m-11.45 1.41h1.12c.39 0 .7.11.9.34.21.2.31.51.31.85 0 .35-.1.63-.31.85-.2.21-.51.32-.9.32h-1.12"/></svg>

<?xml version="1.0" encoding="UTF-8"?><!DOCTYPE svg PUBLIC "-//W3C//DTD SVG 1.1//EN" "http://www.w3.org/Graphics/SVG/1.1/DTD/svg11.dtd"><svg xmlns="http://www.w3.org/2000/svg" xmlns:xlink="http://www.w3.org/1999/xlink" version="1.1" id="mdi-stackpath" width="24" height="24" viewBox="0 0 24 24"><path d="M4.91 8C4.04 8 3.32 8.2 2.76 8.61C2.19 9 1.91 9.53 1.91 10.19C1.91 10.85 2.15 11.37 2.62 11.72C3.1 12.07 3.82 12.41 4.8 12.72C5.27 12.88 5.6 13.04 5.78 13.19C5.96 13.34 6.05 13.55 6.05 13.83C6.05 14.07 5.96 14.26 5.78 14.41C5.6 14.56 5.32 14.63 4.94 14.63C4.45 14.63 4.09 14.54 3.85 14.35C3.6 14.16 3.5 13.84 3.5 13.39H1.72L1.71 13.42C1.7 14.25 2 14.89 2.66 15.33C3.3 15.78 4.06 16 4.94 16C5.82 16 6.5 15.8 7.06 15.42C7.59 15.03 7.86 14.5 7.86 13.81C7.86 13.14 7.63 12.61 7.19 12.23C6.74 11.84 6.08 11.5 5.2 11.26C4.62 11.05 4.23 10.88 4 10.74C3.81 10.6 3.71 10.42 3.71 10.2C3.71 9.96 3.81 9.76 4 9.6C4.22 9.44 4.5 9.36 4.87 9.36C5.24 9.36 5.53 9.46 5.74 9.65C5.96 9.84 6.07 10.12 6.06 10.41H7.8L7.82 10.37C7.84 9.68 7.57 9.11 7 8.66C6.47 8.22 5.77 8 4.91 8M9 8.05V15.93H10.84V13.23H11.96C12.89 13.23 13.63 13 14.18 12.5C14.73 12.05 15 11.42 15 10.64C15 9.87 14.73 9.25 14.18 8.77C13.63 8.29 12.89 8.05 11.96 8.05H9M17.24 8.05L14.5 15.93H16.22L19 8.05M20.5 8.05L17.79 15.93H19.5L22.29 8.05M10.84 9.46H11.96C12.35 9.46 12.66 9.57 12.86 9.8C13.07 10 13.17 10.31 13.17 10.65C13.17 11 13.07 11.28 12.86 11.5C12.66 11.71 12.35 11.82 11.96 11.82H10.84" /></svg>
